icons/op-modules-24.svg

<svg width="24" height="24" viewBox="0 0 24 24" fill="none" xmlns="http://www.w3.org/2000/svg">
<path d="M12 4L4 6.34538V17.6867L12 20L20 17.6867V6.34538L12 4ZM11.3701 18.5221L5.22835 16.7229V8.01606L11.3701 9.81526V18.5221ZM18.7717 16.7229L12.6299 18.5221V9.81526L18.7717 8.01606V16.7229ZM12 8.69076L6.14173 6.98795L12 5.28514L17.8583 6.98795L12 8.69076Z" fill="black"/>
</svg>

<svg xmlns="http://www.w3.org/2000/svg" width="24" height="24" viewBox="0 0 24 24"><path d="M12 4 4 6.345v11.342L12 20l8-2.313V6.345L12 4Zm-.63 14.522-6.142-1.799V8.016l6.142 1.799v8.707Zm7.402-1.799-6.142 1.799V9.815l6.142-1.799v8.707ZM12 8.691 6.142 6.988 12 5.285l5.858 1.703L12 8.691Z"/></svg>
